X: 32
T: Puisque vous estez campieur
N: Derived from Duf3067-Puisque_vous_estez_campieur.krn
C: Guillaume Du Fay
%%abc-version 2.0
%%abcx-abcm2ps-target-version 5.9.1 (29 Sep 2008)
%%abc-creator hum2abc beta
%%abcx-conversion-date 2019/02/16 20:31:47
%%abc-edited-by Jesse Rodin
%%abc-edited-by Alejandro Planchart
%%abcx-initial-encoding-date 2016/03/18/
%%humdrum-veritas 1607247277
%%humdrum-veritas-data 4071151930
%%linebreak <none>
%%barnumbers 0
L: 1/4
M: 4/2
Q: 1/2=120
V: 1 clef=treble
V: 2 clef=treble-8
V: 3 clef=treble-8
K: F
[V:1] z8 | 
[V:2] d4A2d2- | 
[V:3] D8 | 
[V:1] z8 | 
[V:2] d2cBA4 | 
[V:3] F4F4 | 
[V:1] D8 | 
[V:2] B4G4 | 
[V:3] G4B4 | 
[V:1] F4F4 | 
[V:2] z2c4Bc | 
[V:3] A8 | 
[V:1] G4B4 | 
[V:2] d8 | 
[V:3] G8 | 
[V:1] A8 | 
[V:2] D8 | 
[V:3] F8 | 
[V:1] G8 | 
[V:2] d4B2c2 | 
[V:3] G6FE | 
[V:1] F8 | 
[V:2] d3cA4 | 
[V:3] D8 | 
[V:1] G6FE | 
[V:2] G8 | 
[V:3] z8 | 
[V:1] D8 | 
[V:2] z2B4A2 | 
[V:3] G4F4 | 
[V:1] z8 | 
[V:2] B2G2F4 | 
[V:3] G4A4 | 
[V:1] G4F4 | 
[V:2] G4D4 | 
[V:3] B6A2 | 
[V:1] G4A4 | 
[V:2] z2G2F2A2 | 
[V:3] B4c4 | 
[V:1] B6A2 | 
[V:2] G4d2e2 | 
[V:3] d4G4- | 
[V:1] B4c4 | 
[V:2] d2g2f3e | 
[V:3] G4A4 | 
[V:1] d4G4- | 
[V:2] g3fedd2 | 
[V:3] G6F2 | 
[V:1] G4A4 | 
[V:2] c2d2z2A2 | 
[V:3] E2D2F4 | 
[V:1] G6F2 | 
[V:2] B2G2z2D2 | 
[V:3] G2B3cd2 | 
[V:1] E2D2F4 | 
[V:2] E2G2D4 | 
[V:3] G2B2A4 | 
[V:1] G2B3cd2 | 
[V:2] d6G2- | 
[V:3] G4z4 | 
[V:1] G2B2A4 | 
[V:2] G4^F4 | 
[V:3] z8 | 
[V:1] G4z4 | 
[V:2] G2E2F2G2- | 
[V:3] G4A2B2- | 
[V:1] z8 | 
[V:2] G2A2^F4 | 
[V:3] B2c2A4 | 
[V:1] G4A2B2- | 
[V:2] G2E2D2G2- | 
[V:3] G4d4 | 
[V:1] B2c2A4 | 
[V:2] G2G2A2F2 | 
[V:3] d4c4 | 
[V:1] G4d4 | 
[V:2] z2G4F2 | 
[V:3] B6A2 | 
[V:1] d4c4 | 
[V:2] B3AF4 | 
[V:3] G4A4 | 
[V:1] B6A2 | 
[V:2] G4z4 | 
[V:3] B4_e4- | 
[V:1] G4A4 | 
[V:2] z8 | 
[V:3] e2d2c4 | 
[V:1] B4_e4- | 
[V:2] d4g4- | 
[V:3] B4z2c2- | 
[V:1] e2d2c4 | 
[V:2] g4f2e2 | 
[V:3] c2B2A4 | 
[V:1] B4z2c2- | 
[V:2] g4c4 | 
[V:3] G4F2A2 | 
[V:1] c2B2A4 | 
[V:2] z2d3cA2 | 
[V:3] B2G4F2 | 
[V:1] G4F2A2 | 
[V:2] B2c2d4- | 
[V:3] G2FED2F2 | 
[V:1] B2G4F2 | 
[V:2] d4c4 | 
[V:3] G2B2A4 | 
[V:1] G2FED2F2 | 
[V:2] d2B4d2 | 
[V:3] G2d3cB2 | 
[V:1] G2B2A4 | 
[V:2] G4D4 | 
[V:3] cBAG^F3E | 
[V:1] G2d3cB2 | 
[V:2] B3AG2F2 | 
[V:3] !fermata!G4z2d2 | 
[V:1] cBAG^F3E | 
[V:2] G2A2D4 | 
[V:3] _edcBA4 | 
[V:1] G8 |]  
[V:2] d8 |]  
[V:3] G8 |]  



